browser/extensions/screenshots/webextension/icons/menu-visible.svg

<svg id="Layer_1" xmlns="http://www.w3.org/2000/svg" viewBox="0 0 46 46"><style>.st0{fill:#3e3d40}.st1{fill:#00fdff}.st2{fill:#00d1e6}</style><path id="Fill-1" class="st0" d="M5 12c0-.6.5-1 1-1h34c.6 0 1 .5 1 1v24c0 .6-.5 1-1 1H6c-.6 0-1-.5-1-1V12zm2 23V13h32v22H7z"/><path id="bg" class="st1" d="M7 35h32V13H7z"/><path id="dash" class="st2" d="M38 19h1v-2h-1v2zm0 3h1v-2h-1v2zm0 3h1v-2h-1v2zm0 3h1v-2h-1v2zm0 3h1v-2h-1v2zm0 3h1v-2h-1v2zm-1 1h2v-1h-2v1zm-3 0h2v-1h-2v1zm-3 0h2v-1h-2v1zm-3 0h2v-1h-2v1zm-3 0h2v-1h-2v1zm-3 0h2v-1h-2v1zm-3 0h2v-1h-2v1zm-3 0h2v-1h-2v1zm-3 0h2v-1h-2v1zm-3 0h2v-1h-2v1zm-2-3H7v3h2v-1H8v-2zm-1-1h1v-2H7v2zm0-3h1v-2H7v2zm0-3h1v-2H7v2zm0-3h1v-2H7v2zm0-3h1v-2H7v2zm2-6H7v3h1v-2h1v-1zm1 1h2v-1h-2v1zm3 0h2v-1h-2v1zm3 0h2v-1h-2v1zm3 0h2v-1h-2v1zm3 0h2v-1h-2v1zm3 0h2v-1h-2v1zm3 0h2v-1h-2v1zm3 0h2v-1h-2v1zm3 0h2v-1h-2v1zm5-1h-2v1h1v2h1v-3z"/></svg>

<?xml version="1.0" encoding="utf-8"?>
<!-- Generator: Adobe Illustrator 21.0.0, SVG Export Plug-In . SVG Version: 6.00 Build 0)  -->
<svg version="1.1" id="Layer_1" xmlns="http://www.w3.org/2000/svg" xmlns:xlink="http://www.w3.org/1999/xlink" x="0px" y="0px"
	 viewBox="0 0 46 46" style="enable-background:new 0 0 46 46;" xml:space="preserve">
<style type="text/css">
	.st0{fill:#3E3D40;}
	.st1{fill:#00FDFF;}
	.st2{fill:#00D1E6;}
</style>
<path id="Fill-1" class="st0" d="M5,12c0-0.6,0.5-1,1-1h34c0.6,0,1,0.5,1,1v24c0,0.6-0.5,1-1,1H6c-0.6,0-1-0.5-1-1V12z M7,35V13h32
	v22H7z"/>
<polygon id="bg" class="st1" points="7,35 39,35 39,13 7,13 "/>
<path id="dash" class="st2" d="M38,19h1v-2h-1V19z M38,22h1v-2h-1V22z M38,25h1v-2h-1V25z M38,28h1v-2h-1V28z M38,31h1v-2h-1V31z
	 M38,34h1v-2h-1V34z M37,35h2v-1h-2V35z M34,35h2v-1h-2V35z M31,35h2v-1h-2V35z M28,35h2v-1h-2V35z M25,35h2v-1h-2V35z M22,35h2v-1
	h-2V35z M19,35h2v-1h-2V35z M16,35h2v-1h-2V35z M13,35h2v-1h-2V35z M10,35h2v-1h-2V35z M8,32H7v2v1h2v-1H8V32z M7,31h1v-2H7V31z
	 M7,28h1v-2H7V28z M7,25h1v-2H7V25z M7,22h1v-2H7V22z M7,19h1v-2H7V19z M9,13H7v1v2h1v-2h1V13z M10,14h2v-1h-2V14z M13,14h2v-1h-2
	V14z M16,14h2v-1h-2V14z M19,14h2v-1h-2V14z M22,14h2v-1h-2V14z M25,14h2v-1h-2V14z M28,14h2v-1h-2V14z M31,14h2v-1h-2V14z M34,14h2
	v-1h-2V14z M39,13h-2v1h1v2h1V13z"/>
</svg>
